X:26
T:Waltz. CJF.026
R:Waltz
S:C.J.Fox MS, 1829/33, Beverley,E.Yorks.
B:Kidson Coll.Mitchell Lib.M1805
O:England
A:East Yorkshire
N:Marked “From J J”.
Z:vmp.P J Headford 2000 & 2008
M:3/8
L:1/16
Q:1/8=120
K:D
fe|\
d2dAdf|d2dAdf|d2dAdf|f2e2 ed|!
c2cAce|c2cAce|a3g ((3fge)|d4:|!
|:ag|f2g2a2|b4gf|e2f2g2|a4fe|!
d2e2f2|g4ed|c2cdec|d4:|!
|:dc|B2(Bcde)|f2(fedc)|B2Bcde|f2F2F2|!
B2(Bcde)|f2fedc|B2d2c2|B4:|!
|:e2|e3dcB|A2ABcd|e3dcB|A4dc|!
B2Bcde|f2fedc|B2d2c2″ D.C.”B4:|

